X:1
T:In deep distress - Mundy
T:#
%%score [ 1 2 3 4 ]
L:1/8
Q:1/4=100
M:4/4
K:C
V:1 treble nm="Soprano" snm="S"
V:2 treble nm="Alto" snm="A"
V:3 treble-8 nm="Tenor" snm="T"
V:4 bass nm="Bass" snm="B"
V:1
"^In Deep Distress" z8 | z8 | z8 | A4 E2"^John Mundy\n(?-1630)" F2 | E4 z2 A2 | %5
w: |||In deep dis-|tress, to|
[M:4/4] ^G3 A B2 G2 | A6 z2 | z8 | z4 B4 | e6 c2 | d6 A2 | c2 B4 A2 | ^G2 A4 G2 | A4 z4 | z8 | z8 | %16
w: live with- out de-|light,||Were|such a|life as|few, as few,|I think, would|crave.|||
 A4 E2 F2 | E6 A2 | ^G3 A B2 A2 | B8 | z8 | e4 B2 c2 | B6 d2 | ^c3 d e2 c2 | d8 | z4 z2 f2- | %26
w: In pangs and|pains to|lan- guish day and|night,||In pangs and|pains to|lan- guish day and|night,|Were|
 f2 e4 d2 | c2 B2 A2 B2- | B2 A4 ^G2 | A8 | c4 B4- | B2 A2 G2 F2 | E2 G2 F2 F2 | E4 z4 | z8 | %35
w: * too, too|much for one poor|* soul to|have.|If weal|* and woe will|thus con- ti- nue|strife,||
 z4 e4- | e4 d4- | d2 c2 B2 A2 | ^G2 A2 B2 B2 | E4 z4 | z4 B4 | A3 B c2 A2 | B2 B2 A2 G2 | %43
w: if|* weal|* and woe will|thus con- ti- nue|strife,|A|gen- tle death were|good to cut off|
 ^F2 E2 F4 | E4 A2 B2 | c4 (B4 | A8) | B8 | z8 | z4 e4 | d3 e f2 d2 | e2 e2 d2 c2 | B4 E4 | A8 | %54
w: such a life,|to cut off|such a||life,||a|gen- tle death were|good to cut off|such a|life,|
 z4 d4 | ^c3 d e2 c2 | d3 =c B2 A2 | ^G2 E2 A4- | A4 ^G4 | A8 |] %60
w: a|gen- tle death were|good, were good to|cut off such|* a|life.|
V:2
 z8 | E4 B,2 C2 | B,6 E2 | C4 B,2 D2- | D2 ^C2 D2 F2 |[M:4/4] E4 E4 | ^C6 A,2 | =C3 D E2 C2 | D8 | %9
w: |In deep dis-|tress, to|live with- out|* de- light, in|deep dis-|tress, to|live with- out de-|light,|
 C2 C4 E2 | D3 (E F2 D2) | E4 D4 | E2 (F2 E4) | ^C4 E4 | D2 =C2 B,2 A,2 | B,8 | ^C6 (D2 | %17
w: Were such a|life as * *|few, I|think, would *|crave, as|few, I think, would||crave, as|
 =C4) B,2 A,2 | B,3 (C D2 E2) | E4 z4 | E4 E2 F2 | E4 z2 A2 | ^G3 A B2 G2 | A4 A4 | F6 G2 | %25
w: ~ few, I|think, would * *|crave.|In pangs and|pains to|lan- guish day and|night, and|night, Were|
 A4 F2 D2 | G4 (E2 A2) | G4 (F2 D2) | G2 E4 E2 | (^C6 D2) | E8 | z8 | z8 | z4 A4- | A4 G4- | %35
w: too much for|one poor *|soul, one *|poor soul to|have. *||||If|* weal|
 G2 F2 E2 D2 | C4 G4 | G4 F4 | E8 | z4 E4 | ^D3 ^C D2 (E2 | F4) E2 (^F2 | G2) ^F4 (E2 | %43
w: * and woe will|thus con-|ti- nue|strife,|A|gen- tle death were|* good to|* cut off|
 ^D2) E4 D2 | E4 (C2 =D2) | E8 | z4 A4 | ^G3 A B2 G2 | A2 A2 =G2 F2 | E4 c4 | B4 A4 | c3 c B2 A2 | %52
w: * such a|life, a *|life,|a|gen- tle death were|good to cut off|such a|life, a|gen- tle death were|
 G3 ^F G2 E2 | =F8 | E4 D4 | z4 E4 | D3 E F2 D2 | E2 E2 D2 C2 | B,2 (A,2 B,4) | A,8 |] %60
w: good to cut off|such|a life,|a|gen- tle death were|good to cut off|such a *|life.|
V:3
 A4 E2 F2 | E4 z2 A2 | ^G3 A B2 G2 | A4 (=G2 F2) | G2 A2 D2 d2 |[M:4/4][K:treble-8] B8 | A4 E2 F2 | %7
w: In deep dis-|tress, to|live with- out de-|light, to *|live with- out de-|light,|in deep dis-|
 E4 z2 A2 | ^G3 A B2 G2 | A4 =G2 c2- | c2 (B2 A4) | G6 A2 | B2 d2 c2 B2 | A4 c4 | B2 A2 A4- | %15
w: tress, to|live with- out de-|light, Were such|* a *|life as|few, I think, would|crave, as|few, I think,|
 A4 ^G4 | A8 | z8 | e4 B2 c2 | B4 z2 e2 | c6 (B2 | c2) e4 e2 | e4 d4 | e8 | d4 d4- | d2 c4 B2 | %26
w: * would|crave.||In pangs and|pains to|lan- guish|* day and|night, day|and|night, Were|* too, too|
 c6 f2 | e4 d4 | e2 (c2 B4) | A8 | z8 | z4 e4- | e4 d4- | d2 c2 B2 (A2 | c4) B4- | B2 (A2 G4) | %36
w: much for|one poor|soul to *|have.||If|* weal|* and woe will|* thus|* con\- *|
 A2 A2 d4 | e4 d2 c2 | B4 B4 | A3 B c2 A2 | B6 =c2 | d4 c4 | B8 | B8 | E4 F4 | E8 | c4 B2 A2 | %47
w: ti- nue strife,|con- ti- nue|strife, A|gen- tle death were|good to|cut, to|cut|off|such a|life,|a gen- tle|
 e6 d2 | c2 f2 e2 d2 | c4 c4 | G4 d4 | c4 d4 | e4 B4 | d4 A4 | ^G3 A B2 G2 | A8 | A8 | B4 (c2 d2) | %58
w: death were|good to cut off|such a|life, to|cut off|such a|life, a|gen- tle death were|good|to|cut off *|
 e6 d2 | ^c8 |] %60
w: such a|life.|
V:4
 z8 | z8 | z8 | z8 | z8 |[M:4/4] E,8 | A,,6 D,2 | A,,4 C,4 | B,,3 C, D,2 B,,2 | A,,4 C,4 | %10
w: |||||In|deep dis-|tress, to|live with- out de-|light, Were|
 F,2 G,2 D,2 (F,2 | E,4) G,2 F,2 | E,2 (D,2 E,4) | A,,4 A,,4 | D,2 (E,2 F,4) | E,2 (D,2 E,4) | %16
w: such a life as|* few, I|think, would *|crave, as|few, I *|think, would *|
 A,,8 | A,4 E,2 F,2 | E,4 z2 A,2 | ^G,3 A, B,2 G,2 | A,4 (A,,2 D,2) | C,3 D, E,2 A,,2 | E,4 B,,4 | %23
w: crave.|In pangs and|pains to|lan- guish day and|night, to *|lan- guish day and|night, day|
 A,,8 | D,4 D,4 | F,4 D,4 | C,6 (D,2 | E,4) F,2 G,2 | E,2 (A,2 E,4) | A,,4 A,4- | A,4 G,4- | %31
w: and|night, Were|too, too|much for|* one poor|soul to *|have. If|* weal|
 G,2 F,2 E,2 D,2 | C,4 D,4 | E,4 F,4 | E,6 F,2 | G,2 (D,2 E,4) | A,,4 B,,4 | C,4 D,4 | E,6 (D,2 | %39
w: * and woe will|thus con-|ti- nue|strife, if|weal and *|woe will|thus con-|ti- nue|
 C,8) | B,,8 | z8 | z8 | z8 | z4 A,4 | ^G,3 A, B,2 G,2 | A,2 A,2 =G,2 F,2 | E,8 | (F,4 G,4) | A,8 | %50
w: |strife,||||A|gen- tle death were|good to cut off|such|a *|life,|
 z8 | z8 | z4 E,4 | D,3 E, =F,2 D,2 | E,4 B,,4 | A,,8 | D,6 F,2 | E,8 | E,8 | A,,8 |] %60
w: ||a|gen- tle death were|good to||cut off|such|a|life.|

